!!!COM:	la Rue, Pierre de
!!!CDT:	~1452///-1518/11/20
!!!OTL:	A vous non autre
!!!AGN:	Song; Chanson
!!!SCT:	Rue3002
!!!SCA:	Rue3002
!!!voices:	3
**kern	**kern	**kern
*staff3	*staff2	*staff1
*Ivox	*Ivox	*Ivox
*I"Bassus	*I"Tenor	*I"Contra
*I'B	*I'T	*I'C
*clefF4	*clefGv2	*clefGv2
*k[]	*k[]	*k[]
*M2/1	*M2/1	*M2/1
*met(C|)	*met(C|)	*met(C|)
=1-	=1-	=1-
1AA	0r	0r
4AA/	.	.
4GG/	.	.
4AA/	.	.
4BB/	.	.
=2	=2	=2
2C/	0r	1A
2.D\	.	.
.	.	4A/
4E\	.	4G/
[2F\	.	4A/
.	.	4B\
=3	=3	=3
4F\]	0r	2c\
4E\	.	.
4D\	.	2.d\
4C/	.	.
[1BB-	.	.
.	.	4e\
.	.	[2f\
=4	=4	=4
2BB-/]	1D	4f\]
.	.	4e\
2AA/	.	4d\
.	.	4c\
1GG	4D/	1B-i
.	4C/	.
.	4D/	.
.	4E/	.
=5	=5	=5
2FF/	2F/	2A/
2BB-i/	2.G/	2d\
2BB-i/	.	2d\
.	4A/	.
2BB-i/	[2B-i\	2d\
=6	=6	=6
2GG/	4B-\]	2d\
.	4A/	.
2GG/	4G/	2d\
.	4F/	.
1AA	1E	1c
=7	=7	=7
1BB-i	1D	2r
.	.	2f\
2AA/	2r	2f\
[2FF/	2A/	2f\
=8	=8	=8
4FF/]	2A/	2f\
4GG/	.	.
2.AA/	2A/	2f\
.	2A/	2e\
4BB/	.	.
4C/	2A/	4d\
4D\	.	4c\
=9	=9	=9
2.E\	0G	4B\
.	.	4A/
.	.	2c\
4EE/	.	.
1EE	.	1B
=10	=10	=10
2r	2r	1A
2FF/	2c\	.
2FF/	2c\	2r
2FF/	2c\	2A/
=11	=11	=11
2GG/	2B\	2.d\
2GG/	2B\	.
.	.	4e\
2.AA/	2A/	2f\
.	4G/	[2e\
4BB/	4F/	.
=12	=12	=12
4C/	4E/	4e\]
4BB/	4D/	4d\
2D\	2F/	1d
1AA	1E	.
.	.	2c#i\
=13	=13	=13
2r	0D	1d
2DD/	.	.
2FF/	.	2r
2FF/	.	2A/
=14	=14	=14
2FF/	1r	2c\
2AA/	.	2c\
2.GG/	2r	2B\
.	2D/	2B\
4FF/	.	.
=15	=15	=15
2DD/	2F/	4A/
.	.	4B\
1D	2F/	4c\
.	.	4d\
.	2E/	1e
2C#i/	2E/	.
=16	=16	=16
1D	4D/	2r
.	4E/	.
.	4F/	2A/
.	4G/	.
2.AA/	1A	4A/
.	.	4B\
.	.	4c\
4BB/	.	4d\
=17	=17	=17
2C/	2r	2e\
2D\	2D/	2f\
[1F	4D/	1d
.	4E/	.
.	4F/	.
.	4G/	.
=18	=18	=18
2F\]	2A/	2c\
2BB-/	2B-i\	1f
1C	1G	.
.	.	2e\
=19	=19	=19
2r;	2F;/	0f;
2BB-i/	2B-\	.
2BB-/	2B-i\	.
2BB-i/	2B-i\	.
=20	=20	=20
2C/	2A/	1r
2AA/	2F/	.
4BB-i/	2G/	2r
4AA/	.	.
4BB-i/	2D/	2f\
4C/	.	.
=21	=21	=21
1D	4F/	2f\
.	4E/	.
.	4F/	2f\
.	4G/	.
1AA	2A/	2e\
.	2E/	2c\
=22	=22	=22
2r	4F/	2d\
.	4E/	.
2AA/	4F/	2A/
.	4G/	.
2.AA/	[1A	4c\
.	.	4B\
.	.	4c\
4BB/	.	4d\
=23	=23	=23
2C/	0A]	2e\
2D\	.	2A/
2.AA/	.	4c\
.	.	4B\
.	.	4c\
4BB/	.	4d\
=24	=24	=24
2C/	2r	1e
2E\	2G/	.
1D	4A/	2r
.	4G/	.
.	4A/	2d\
.	4B\	.
=25	=25	=25
0C	2c\	4e\
.	.	4d\
.	2A/	4e\
.	.	4f\
.	2G/	2g\
.	2A/	2e\
=26	=26	=26
2r	1B	1d
2GG/	.	.
4AA/	1A	1c
4GG/	.	.
4AA/	.	.
4BB/	.	.
=27	=27	=27
2C/	2r	2r
2FF/	2A/	2f\
4FF/	2A/	2f\
4GG/	.	.
4AA/	2A/	2f\
4BB/	.	.
=28	=28	=28
1C	2G/	2e\
.	2G/	2.g\
1BB-	1B-i	.
.	.	2f\
.	.	8e\L
.	.	8d\J
=29	=29	=29
2r	0A	1.c
2FF/	.	.
2FF/	.	.
2AA/	.	2A/
=30	=30	=30
2GG/	2r	2B\
2FF/	2F/	2c\
1BB-i	2F/	1d
.	2G/	.
=31	=31	=31
1.AA	1A	2r
.	.	1c
.	4F/	.
.	4G/	.
2FF/	[2A/	4A/
.	.	4B\
=32	=32	=32
1FF	2A/]	1c
.	4F/	.
.	4G/	.
2r	2A/	4A/
.	.	4B\
[2F\	4F/	2c\
.	4G/	.
=33	=33	=33
4F\]	2A/	4A/
4E\	.	4B\
1D	2F/	4c\
.	.	4d\
.	1E	4e\
.	.	4f\
2C/	.	2g\
=34	=34	=34
2D\	4D/	1f
.	4E/	.
4DD/	4F/	.
4EE/	4G/	.
4FF/	4A/	2f\
4GG/	4B\	.
2AA/	2c\	[2e\
=35	=35	=35
4EE/	2c\	2e\]
4FF/	.	.
4GG/	1B	4d\
4AA/	.	4c\
2BB/	.	2B\
2C/	[2A/	[2e\
=36	=36	=36
2D\	2A/]	2e\]
2DD/	4G/	1d
.	4F/	.
1AA	1E	.
.	.	2c#i\
=37	=37	=37
2r	0D	1d
2.DD/	.	.
.	.	2r
4EE/	.	.
4FF/	.	4A/
4GG/	.	4B\
=38	=38	=38
4AA/	2r	4c\
4DD/	.	4d\
1D	2D/	4e\
.	.	4f\
.	2E/	1g
2C/	2E/	.
=39	=39	=39
2D\	4D/	1f
.	4E/	.
4DD/	4F/	.
4EE/	4G/	.
4FF/	4A/	2f\
4GG/	4B\	.
2AA/	[2c\	[2e\
=40	=40	=40
4EE/	2c\]	2e\]
4FF/	.	.
4GG/	2.B\	4d\
4AA/	.	4c\
4BB/	.	4B\
4C/	4B\	4A/
2D\	[2A/	[2f\
=41	=41	=41
4DD/	2A/]	4f\]
4EE/	.	4e\
4FF/	4G/	2.d\
4GG/	4F/	.
1AA	1E	.
.	.	4c#i\
.	.	2c#i\
=42	=42	=42
0DDl	0Dl	0dl
==	==	==
*-	*-	*-
!!!RDF**kern: l=long note in original notation
!!!RDF**kern: i=editorial accidental
!!!ENC:	Chris Gage 06-11-2013
!!!END:	2013/08/06/
!!!EED:	Jesse Rodin
!!!EEV:	2013/08/06/
!!!ONB:	Translated from MusicXML and edited on 2013/08/06/ by Craig Sapp
!!muse2ps: C^@{COM}^i2I150v85,85,150Q16
